X:1
T: Weighing Anchor
C:Gordy Euler
R:Jig
Q:180
K:D
M:6/8
L:1/16
|:d4d2 B4B2|A2F2D2 F2G2A2|B2A2B2 A2B2c2|d2A2d2 c2A2c2|
d4d2 B4B2|A2F2D2 F2G2A2|B2A2B2 c2A2G2|F2D2D2 D6:|
|:f4f2 d4B2|d2f2e2 d2c2d2|f4f2 d2e2f2|g2f2g2 e2f2g2|
f4f2 d2f2a2|a2g2f2 g2f2e2|f2a2f2 g2e2g2|f2d2d2 d6:|
